assets/illustrations/empty_box_2.svg

<svg fill="none" height="280" viewBox="0 0 280 280" width="280" xmlns="http://www.w3.org/2000/svg">
    <path
        d="m41.5004 212.398c7.616 18.585 20.034 22.453 28.7648 18.585 16.8851-7.482 60.7468-15.84 105.7938 3.808 59.663 26.023 72.357-13.239 53.316-52.954-19.041-39.714-25.495-79.877-3.544-102.0039 21.951-22.1271-6.774-56.7419-57.787-20.7103-32.966 23.2849-57.16 18.1001-70.1519 11.5175-12.2444-6.2038-25.8616-12.6896-38.6197-7.6255-15.4805 6.145-21.5803 19.4677 1.9726 49.2312 33.3764 42.176-36.8169 58.494-19.7446 100.152z"
        fill="#dee9ff" />
    <path
        d="m72.5103 121.864h118.5277v91.156c0 .185-.073.363-.205.494-.131.132-.309.206-.495.206h-117.1277c-.1857 0-.3638-.074-.495-.206-.1313-.131-.205-.309-.205-.494z"
        fill="#a2bdff" />
    <path d="m161.304 86.1428h-55.114l-33.6797 35.7212h118.5277z" fill="#418df9" />
    <path d="m83.7369 71.8541 22.4531 14.2887-33.6798 35.7212-25.5154-19.391z" fill="#699cff" />
    <path d="m183.757 71.8541-22.454 14.2887 29.735 35.7212 29.461-19.391z" fill="#699cff" />
    <g fill="#418df9">
        <path
            d="m120.67 72.5847c.634-.3005 1.127-.8342 1.376-1.4896s.236-1.3818-.038-2.0274l-10.101-23.8179c-.143-.3374-.353-.6423-.617-.8965s-.576-.4524-.919-.5827c-.342-.1303-.708-.19-1.074-.1754-.366.0145-.726.1029-1.057.2599l-1.946.9228c-.331.157-.627.3793-.87.6536s-.428.5949-.544.9425-.16.7151-.13 1.0804c.03.3652.133.7206.303 1.0449l12.047 22.8951c.327.6206.881 1.0909 1.546 1.3128.665.2218 1.39.1779 2.024-.1225z" />
        <path
            d="m133.334 70.2757c.458-.0327.886-.2413 1.195-.5823.308-.3409.473-.7879.46-1.2474l-.499-16.9563c-.007-.2401-.063-.4764-.164-.6946-.1-.2181-.244-.4137-.422-.5748-.179-.1612-.388-.2847-.615-.363-.227-.0784-.468-.11-.707-.0929l-1.409.1004c-.24.017-.473.0823-.687.192-.214.1096-.403.2614-.557.4461-.153.1846-.268.3985-.337.6286s-.09.4718-.063.7105l1.907 16.856c.052.457.278.8763.632 1.1703.353.294.807.44 1.266.4074z" />
        <path
            d="m143.11 76.5438c1.262.7293 3.032.0601 4.014-1.5173l17.439-28.0074c1.042-1.6732.795-3.7124-.542-4.4859l-1.865-1.078c-1.338-.7736-3.229.0297-4.159 1.7672l-15.574 29.0853c-.877 1.6381-.574 3.5067.687 4.2361z" />
    </g>
</svg>

<svg fill="none" height="280" viewBox="0 0 280 280" width="280" xmlns="http://www.w3.org/2000/svg">
    <path
        d="M41.5004 212.398C49.1164 230.983 61.5344 234.851 70.2652 230.983C87.1503 223.501 131.012 215.143 176.059 234.791C235.722 260.814 248.416 221.552 229.375 181.837C210.334 142.123 203.88 101.96 225.831 79.8331C247.782 57.706 219.057 23.0912 168.044 59.1228C135.078 82.4077 110.884 77.2229 97.8921 70.6403C85.6477 64.4365 72.0305 57.9507 59.2724 63.0148C43.7919 69.1598 37.6921 82.4825 61.245 112.246C94.6214 154.422 24.4281 170.74 41.5004 212.398Z"
        fill="#DEE9FF" />
    <path
        d="M72.5103 121.864H191.038V213.02C191.038 213.205 190.965 213.383 190.833 213.514C190.702 213.646 190.524 213.72 190.338 213.72H73.2103C73.0246 213.72 72.8465 213.646 72.7153 213.514C72.584 213.383 72.5103 213.205 72.5103 213.02V121.864Z"
        fill="#A2BDFF" />
    <path d="M161.304 86.1428H106.19L72.5103 121.864H191.038L161.304 86.1428Z" fill="#418DF9" />
    <path d="M83.7369 71.8541L106.19 86.1428L72.5102 121.864L46.9948 102.473L83.7369 71.8541Z" fill="#699CFF" />
    <path d="M183.757 71.8541L161.303 86.1428L191.038 121.864L220.499 102.473L183.757 71.8541Z" fill="#699CFF" />
    <path
        d="M120.67 72.5847C121.304 72.2842 121.797 71.7505 122.046 71.0951C122.295 70.4397 122.282 69.7133 122.008 69.0677L111.907 45.2498C111.764 44.9124 111.554 44.6075 111.29 44.3533C111.026 44.0991 110.714 43.9009 110.371 43.7706C110.029 43.6403 109.663 43.5806 109.297 43.5952C108.931 43.6097 108.571 43.6981 108.24 43.8551L106.294 44.7779C105.963 44.9349 105.667 45.1572 105.424 45.4315C105.181 45.7058 104.996 46.0264 104.88 46.374C104.764 46.7216 104.72 47.0891 104.75 47.4544C104.78 47.8196 104.883 48.175 105.053 48.4993L117.1 71.3944C117.427 72.015 117.981 72.4853 118.646 72.7072C119.311 72.929 120.036 72.8851 120.67 72.5847Z"
        fill="#418DF9" />
    <path
        d="M133.334 70.2757C133.792 70.243 134.22 70.0344 134.529 69.6934C134.837 69.3525 135.002 68.9055 134.989 68.446L134.49 51.4897C134.483 51.2496 134.427 51.0133 134.326 50.7951C134.226 50.577 134.082 50.3814 133.904 50.2203C133.725 50.0591 133.516 49.9356 133.289 49.8573C133.062 49.7789 132.821 49.7473 132.582 49.7644L131.173 49.8648C130.933 49.8818 130.7 49.9471 130.486 50.0568C130.272 50.1664 130.083 50.3182 129.929 50.5029C129.776 50.6875 129.661 50.9014 129.592 51.1315C129.523 51.3616 129.502 51.6033 129.529 51.842L131.436 68.698C131.488 69.155 131.714 69.5743 132.068 69.8683C132.421 70.1623 132.875 70.3083 133.334 70.2757Z"
        fill="#418DF9" />
    <path
        d="M143.11 76.5438C144.372 77.2731 146.142 76.6039 147.124 75.0265L164.563 47.0191C165.605 45.3459 165.358 43.3067 164.021 42.5332L162.156 41.4552C160.818 40.6816 158.927 41.4849 157.997 43.2224L142.423 72.3077C141.546 73.9458 141.849 75.8144 143.11 76.5438Z"
        fill="#418DF9" />
</svg>
